public/images/icons/re-icons/re-star.svg

<svg width="18" height="18" viewBox="0 0 18 18" fill="none" xmlns="http://www.w3.org/2000/svg">
<path d="M8.42937 1.75623C8.60898 1.20345 9.39102 1.20344 9.57063 1.75623L10.8859 5.80426C10.9662 6.05147 11.1966 6.21885 11.4566 6.21885H15.7129C16.2941 6.21885 16.5358 6.96262 16.0656 7.30426L12.6221 9.80608C12.4118 9.95886 12.3238 10.2297 12.4042 10.4769L13.7194 14.5249C13.899 15.0777 13.2664 15.5374 12.7961 15.1957L9.35267 12.6939C9.14238 12.5411 8.85762 12.5411 8.64733 12.6939L5.20387 15.1957C4.73364 15.5374 4.10096 15.0777 4.28057 14.5249L5.59585 10.4769C5.67617 10.2297 5.58818 9.95886 5.37789 9.80608L1.93443 7.30426C1.4642 6.96262 1.70587 6.21885 2.2871 6.21885H6.54345C6.80338 6.21885 7.03376 6.05147 7.11408 5.80426L8.42937 1.75623Z" fill="white"/>
</svg>

<svg fill="none" viewBox="0 0 18 18"><path fill="#fff" d="M8.43 1.756c.179-.553.961-.553 1.14 0l1.316 4.048a.6.6 0 00.57.415h4.257c.581 0 .823.744.353 1.085l-3.444 2.502a.6.6 0 00-.218.67l1.315 4.049c.18.553-.453 1.012-.923.67l-3.443-2.501a.6.6 0 00-.706 0l-3.443 2.502c-.47.341-1.103-.118-.923-.671l1.315-4.048a.6.6 0 00-.218-.67L1.934 7.303c-.47-.341-.228-1.085.353-1.085h4.256a.6.6 0 00.571-.415L8.43 1.756z"/></svg>
